flaticon/stationery/watercolor-1.svg

<svg xmlns="http://www.w3.org/2000/svg" width="32" height="32" viewBox="0 0 24 24">
    <path d="M 18.917969 0 L 5.082031 0 C 3.546875 0 2.296875 1.25 2.296875 2.78125 L 2.296875 21.21875 C 2.296875 22.75 3.546875 24 5.082031 24 L 18.917969 24 C 20.453125 24 21.703125 22.75 21.703125 21.21875 L 21.703125 2.78125 C 21.703125 1.25 20.453125 0 18.917969 0 Z M 20.679688 21.21875 C 20.679688 22.1875 19.890625 22.980469 18.917969 22.980469 L 5.082031 22.980469 C 4.109375 22.980469 3.320312 22.1875 3.320312 21.21875 L 3.320312 2.78125 C 3.320312 1.8125 4.109375 1.019531 5.082031 1.019531 L 18.917969 1.019531 C 19.890625 1.019531 20.679688 1.8125 20.679688 2.78125 Z M 20.679688 21.21875"/>
    <path d="M11.488281 2.808594L12.511719 2.808594 12.511719 21.191406 11.488281 21.191406zM16.625 2.578125C15.289062 2.578125 14.203125 3.664062 14.203125 5 14.203125 6.335938 15.289062 7.421875 16.625 7.421875 17.960938 7.421875 19.046875 6.335938 19.046875 5 19.046875 3.664062 17.960938 2.578125 16.625 2.578125zM16.625 6.398438C15.851562 6.398438 15.222656 5.773438 15.222656 5 15.222656 4.226562 15.851562 3.597656 16.625 3.597656 17.394531 3.597656 18.023438 4.226562 18.023438 5 18.023438 5.773438 17.394531 6.398438 16.625 6.398438zM16.625 9.578125C15.289062 9.578125 14.203125 10.664062 14.203125 12 14.203125 13.335938 15.289062 14.421875 16.625 14.421875 17.960938 14.421875 19.046875 13.335938 19.046875 12 19.046875 10.664062 17.960938 9.578125 16.625 9.578125zM16.625 13.402344C15.851562 13.402344 15.222656 12.773438 15.222656 12 15.222656 11.226562 15.851562 10.597656 16.625 10.597656 17.394531 10.597656 18.023438 11.226562 18.023438 12 18.023438 12.773438 17.394531 13.402344 16.625 13.402344zM16.625 16.578125C15.289062 16.578125 14.203125 17.664062 14.203125 19 14.203125 20.335938 15.289062 21.421875 16.625 21.421875 17.960938 21.421875 19.046875 20.335938 19.046875 19 19.046875 17.664062 17.960938 16.578125 16.625 16.578125zM16.625 20.402344C15.851562 20.402344 15.222656 19.773438 15.222656 19 15.222656 18.230469 15.851562 17.601562 16.625 17.601562 17.394531 17.601562 18.023438 18.230469 18.023438 19 18.023438 19.773438 17.394531 20.402344 16.625 20.402344zM7.273438 2.578125C5.9375 2.578125 4.851562 3.664062 4.851562 5 4.851562 6.335938 5.9375 7.421875 7.273438 7.421875 8.609375 7.421875 9.695312 6.335938 9.695312 5 9.695312 3.664062 8.609375 2.578125 7.273438 2.578125zM7.273438 6.398438C6.5 6.398438 5.871094 5.773438 5.871094 5 5.871094 4.226562 6.5 3.597656 7.273438 3.597656 8.046875 3.597656 8.675781 4.226562 8.675781 5 8.675781 5.773438 8.046875 6.398438 7.273438 6.398438zM7.273438 9.578125C5.9375 9.578125 4.851562 10.664062 4.851562 12 4.851562 13.335938 5.9375 14.421875 7.273438 14.421875 8.609375 14.421875 9.695312 13.335938 9.695312 12 9.695312 10.664062 8.609375 9.578125 7.273438 9.578125zM7.273438 13.402344C6.5 13.402344 5.871094 12.773438 5.871094 12 5.871094 11.226562 6.5 10.597656 7.273438 10.597656 8.046875 10.597656 8.675781 11.226562 8.675781 12 8.675781 12.773438 8.046875 13.402344 7.273438 13.402344zM7.273438 16.578125C5.9375 16.578125 4.851562 17.664062 4.851562 19 4.851562 20.335938 5.9375 21.421875 7.273438 21.421875 8.609375 21.421875 9.695312 20.335938 9.695312 19 9.695312 17.664062 8.609375 16.578125 7.273438 16.578125zM7.273438 20.402344C6.5 20.402344 5.871094 19.773438 5.871094 19 5.871094 18.230469 6.5 17.601562 7.273438 17.601562 8.046875 17.601562 8.675781 18.230469 8.675781 19 8.675781 19.773438 8.046875 20.402344 7.273438 20.402344zM7.273438 20.402344"/>
</svg>

<svg xmlns="http://www.w3.org/2000/svg" width="32" height="32" viewBox="0 0 24 24">
    <path d="M18.918 0H5.082a2.788 2.788 0 0 0-2.785 2.781V21.22A2.788 2.788 0 0 0 5.082 24h13.836a2.788 2.788 0 0 0 2.785-2.781V2.78A2.788 2.788 0 0 0 18.918 0zm1.762 21.219c0 .968-.79 1.761-1.762 1.761H5.082A1.765 1.765 0 0 1 3.32 21.22V2.78c0-.969.79-1.761 1.762-1.761h13.836c.973 0 1.762.792 1.762 1.761zm0 0"/>
    <path d="M11.488 2.809h1.024V21.19h-1.024zm0 0M16.625 2.578A2.424 2.424 0 0 0 14.203 5a2.424 2.424 0 0 0 2.422 2.422A2.424 2.424 0 0 0 19.047 5a2.424 2.424 0 0 0-2.422-2.422zm0 3.82a1.4 1.4 0 1 1-.004-2.8 1.4 1.4 0 0 1 .004 2.8zm0 0M16.625 9.578A2.424 2.424 0 0 0 14.203 12a2.424 2.424 0 0 0 2.422 2.422A2.424 2.424 0 0 0 19.047 12a2.424 2.424 0 0 0-2.422-2.422zm0 3.824A1.404 1.404 0 0 1 15.223 12c0-.773.629-1.402 1.402-1.402a1.403 1.403 0 0 1 0 2.804zm0 0M16.625 16.578A2.424 2.424 0 0 0 14.203 19a2.424 2.424 0 0 0 2.422 2.422A2.424 2.424 0 0 0 19.047 19a2.424 2.424 0 0 0-2.422-2.422zm0 3.824A1.404 1.404 0 0 1 15.223 19c0-.77.629-1.398 1.402-1.398.77 0 1.398.628 1.398 1.398 0 .773-.628 1.402-1.398 1.402zm0 0M7.273 2.578A2.424 2.424 0 0 0 4.852 5a2.424 2.424 0 0 0 2.421 2.422A2.424 2.424 0 0 0 9.695 5a2.424 2.424 0 0 0-2.422-2.422zm0 3.82a1.4 1.4 0 1 1 0-2.8 1.4 1.4 0 0 1 0 2.8zm0 0M7.273 9.578A2.424 2.424 0 0 0 4.852 12a2.424 2.424 0 0 0 2.421 2.422A2.424 2.424 0 0 0 9.695 12a2.424 2.424 0 0 0-2.422-2.422zm0 3.824A1.404 1.404 0 0 1 5.871 12c0-.773.629-1.402 1.402-1.402.774 0 1.403.629 1.403 1.402 0 .773-.63 1.402-1.403 1.402zm0 0M7.273 16.578A2.424 2.424 0 0 0 4.852 19a2.424 2.424 0 0 0 2.421 2.422A2.424 2.424 0 0 0 9.695 19a2.424 2.424 0 0 0-2.422-2.422zm0 3.824A1.404 1.404 0 0 1 5.871 19a1.403 1.403 0 0 1 2.805 0c0 .773-.63 1.402-1.403 1.402zm0 0"/>
</svg>
